X: 8612
T: Cronin's Rambles
R: hornpipe
M: 4/4
K: Gmajor
|:(3DEF|G>FG>A B>GA>B|c>Bc>e d2 (3def|g>dB>d c2 d>c|B>GA>F D>E (3FED|
G3 A (3BAG A>B|c3 e d>^c (3def|g>dB>d c>AF>A|G2 (3AGF G2:|
|:(3DEF|G>Bd>B g>dB>d|f>ec>e d2 (3def|g>dB>d c2 d>c|B>GA>F D>EF>D|
[1 G2 (3def g>dB>d|f>ec>e d2 (3def|g2 (3d^cd =c>A (3FGA|(3GAG F>A G2:|
[2 G>FG>A B>GA>B|c2 (3cde d2 (3def|g2 (3Bcd c>AD>F|A>GG>F G2||

